build/img/icons/phone.svg

<svg xmlns="http://www.w3.org/2000/svg" width="24" height="23" viewBox="0 0 24 23" fill="none"> <path d="M20.3734 19.216C20.3136 19.342 20.2335 19.458 20.1362 19.5599C19.3937 20.3154 18.5438 20.9668 17.6107 21.4956C17.3378 21.6261 17.0559 21.7391 16.7668 21.8339L16.1673 21.7452C15.8887 21.6492 15.6034 21.5557 15.3335 21.4477C14.1195 20.9332 12.9986 20.2318 12.0158 19.3716C10.3179 17.9512 8.87596 16.313 7.5261 14.5898C6.28336 13.0407 5.19746 11.3828 4.28354 9.63912C3.66147 8.41357 3.15115 7.1564 2.96699 5.79852C2.92193 5.46417 2.91477 5.12599 2.88904 4.79769L2.97253 4.21475C3.37346 3.55289 3.99444 3.10862 4.63671 2.69048C5.11307 2.3851 5.59651 2.10485 6.08746 1.82813C6.29026 1.71307 6.51978 1.64685 6.75676 1.63503C6.99373 1.62322 7.23125 1.66616 7.44938 1.76025C7.70567 1.85355 7.9153 2.03907 8.03308 2.27681C8.65551 3.53 9.26649 4.78866 9.92407 6.02169C10.0615 6.26626 10.125 6.54177 10.1072 6.81662C10.0895 7.09147 9.99128 7.35455 9.82382 7.57569C9.66055 7.82289 9.46611 8.05172 9.28271 8.28681C9.06888 8.55881 8.85466 8.8327 8.62821 9.09615C8.58428 9.13289 8.55705 9.18467 8.55215 9.24079C8.54724 9.29692 8.56504 9.3531 8.60185 9.39775C9.07207 10.1011 9.50911 10.8251 10.0117 11.5116C10.9286 12.8121 11.9588 14.0366 13.091 15.1717C13.1372 15.2308 13.204 15.272 13.2788 15.2877C13.3536 15.3035 13.4313 15.2926 13.4975 15.2573C14.0424 15.047 14.5933 14.8479 15.1485 14.6576C15.5412 14.4979 15.9849 14.4872 16.3912 14.6276C16.5145 14.6741 16.6287 14.7408 16.7289 14.8246C17.8845 15.8093 19.0366 16.7973 20.1854 17.7884C20.5561 18.1027 20.6325 18.7094 20.3734 19.216Z" fill="#737373"/> </svg>

<svg xmlns="http://www.w3.org/2000/svg" width="24" height="23" fill="none"><path d="M20.373 19.216c-.06.126-.14.242-.237.344a11.462 11.462 0 01-2.525 1.936c-.273.13-.555.243-.844.338l-.6-.089c-.278-.096-.564-.19-.834-.297a12.36 12.36 0 01-3.317-2.076c-1.698-1.42-3.14-3.059-4.49-4.782a30.658 30.658 0 01-3.242-4.95C3.66 8.413 3.15 7.155 2.967 5.798c-.045-.335-.052-.673-.078-1.001l.084-.583c.4-.662 1.021-1.106 1.664-1.525.476-.305.96-.585 1.45-.862.203-.115.433-.181.67-.193a1.55 1.55 0 01.692.125c.257.094.466.28.584.517.623 1.253 1.233 2.512 1.891 3.745.138.244.201.52.183.795a1.405 1.405 0 01-.283.759c-.163.247-.358.476-.541.71-.214.273-.428.547-.655.81a.213.213 0 00-.026.302c.47.703.907 1.427 1.41 2.114a28.168 28.168 0 003.079 3.66.322.322 0 00.407.085 45.56 45.56 0 011.65-.6c.393-.16.837-.17 1.243-.03.124.047.238.114.338.198 1.155.984 2.308 1.972 3.456 2.963.371.315.448.921.188 1.428z" fill="#737373"/></svg>
